X: 22767
T: Lang Stayed Away
R: three-two
M: 3/2
K: Bminor
|:"Bm"fB Ba f2|"Bm"fB Bd "A"c/d/e/c/|"Bm"fB Ba f2|"A"cA Ad c/d/e/c/:|
|:"D"d2 fa d2|"Bm"fB Bd "A"c/d/e/c/|"D"d2 fa d2|"A"cA Ad c/d/e/c/:|
|:"Bm"d/e/f/d/ "A"c/d/e/c/ "Bm"B2|"Bm"fB Bd c/d/e/c/|"Bm"d/e/f/d/ "A"c/d/e/c/ "Bm"B2|"A"cA Ad c/d/e/c/:|

